X:239
T:Margaret's Waltz
M:3/4
L:1/8
K:A
c2|E3 F AB|c4 c2|BA F2 A2|B4 c2|E3 F AB|c3 de2|c4 (3BcB|A4:|
cd|e3 fg2|a4 a2|fe d2 f2|e3 dcB|A3 B cd|e4 c2|BA F2 A2|B4 cd|
e3 fg2|a2 g2 f2|e2 d2 c2|B4 c2|E3 FAB|c3 de2|c4 (3BcB|A4||
